s.boot;
s.quit;

(
	// voice 1
		Pbind(
			\freq, Pseq(
				[
					[
						Rest(),
					],
				],
			),
			\dur, Pseq(
				[
					7 * 6,
				]
			,1),
			\amp, 0.05263157894736842,
			\legato, 1,
		).play;
	// voice 2
		Pbind(
			\freq, Pseq(
				[
					[
						Rest(),
					],
				],
			),
			\dur, Pseq(
				[
					7 * 6,
				]
			,1),
			\amp, 0.05263157894736842,
			\legato, 1,
		).play;
	// voice 3
		Pbind(
			\freq, Pseq(
				[
					[
						Rest(),
					],
				],
			),
			\dur, Pseq(
				[
					7 * 6,
				]
			,1),
			\amp, 0.05263157894736842,
			\legato, 1,
		).play;
	// voice 4
		Pbind(
			\freq, Pseq(
				[
					[
						Rest(),
					],
				],
			),
			\dur, Pseq(
				[
					7 * 6,
				]
			,1),
			\amp, 0.05263157894736842,
			\legato, 1,
		).play;
	// voice 5
		Pbind(
			\freq, Pseq(
				[
					[
						Rest(),
					],
				],
			),
			\dur, Pseq(
				[
					7 * 6,
				]
			,1),
			\amp, 0.05263157894736842,
			\legato, 1,
		).play;
	// voice 6
		Pbind(
			\freq, Pseq(
				[
					[
						Rest(),
					],
				],
			),
			\dur, Pseq(
				[
					7 * 6,
				]
			,1),
			\amp, 0.05263157894736842,
			\legato, 1,
		).play;
	// voice 7
		Pbind(
			\freq, Pseq(
				[
					[
						Rest(),
					],
				],
			),
			\dur, Pseq(
				[
					7 * 6,
				]
			,1),
			\amp, 0.05263157894736842,
			\legato, 1,
		).play;
	// voice 8
		Pbind(
			\freq, Pseq(
				[
					[
						Rest(),
					],
				],
			),
			\dur, Pseq(
				[
					7 * 6,
				]
			,1),
			\amp, 0.05263157894736842,
			\legato, 1,
		).play;
	// voice 9
		Pbind(
			\freq, Pseq(
				[
					[
						Rest(),
					],
				],
			),
			\dur, Pseq(
				[
					7 * 6,
				]
			,1),
			\amp, 0.05263157894736842,
			\legato, 1,
		).play;
	// voice 10
		Pbind(
			\freq, Pseq(
				[
					[
						Rest(),
					],
				],
			),
			\dur, Pseq(
				[
					7 * 6,
				]
			,1),
			\amp, 0.05263157894736842,
			\legato, 1,
		).play;
	// voice 11
		Pbind(
			\freq, Pseq(
				[
					[
						Rest(),
					],
				],
			),
			\dur, Pseq(
				[
					7 * 6,
				]
			,1),
			\amp, 0.05263157894736842,
			\legato, 1,
		).play;
	// voice 12
		Pbind(
			\freq, Pseq(
				[
					[
						Rest(),
					],
				],
			),
			\dur, Pseq(
				[
					7 * 6,
				]
			,1),
			\amp, 0.05263157894736842,
			\legato, 1,
		).play;
	// voice 13
		Pbind(
			\freq, Pseq(
				[
					[
						Rest(),
					],
				],
			),
			\dur, Pseq(
				[
					7 * 6,
				]
			,1),
			\amp, 0.05263157894736842,
			\legato, 1,
		).play;
	// voice 14
		Pbind(
			\freq, Pseq(
				[
					[
						Rest(),
					],
				],
			),
			\dur, Pseq(
				[
					7 * 6,
				]
			,1),
			\amp, 0.05263157894736842,
			\legato, 1,
		).play;
	// voice 15
		Pbind(
			\freq, Pseq(
				[
					[
						277.1826309768721,
					],
					[
						285.5219795862123,
					],
					[
						285.5219795862123,
					],
					[
						392.59272193104204,
					],
					[
						460.3557725343343,
					],
					[
						598.372591057812,
					],
					[
						571.0439591724246,
					],
				],
			),
			\dur, Pseq(
				[
					1 * 6,
					1 * 6,
					1 * 6,
					1 * 6,
					1 * 6,
					1 * 6,
					1 * 6,
				]
			,1),
			\amp, 0.05263157894736842,
			\legato, 1,
		).play;
	// voice 16
		Pbind(
			\freq, Pseq(
				[
					[
						220.0,
					],
					[
						256.7666687277957,
					],
					[
						256.7666687277957,
					],
					[
						285.5219795862123,
					],
					[
						413.9927101743865,
					],
					[
						435.18006622386315,
					],
					[
						513.5333374555914,
					],
				],
			),
			\dur, Pseq(
				[
					1 * 6,
					1 * 6,
					1 * 6,
					1 * 6,
					1 * 6,
					1 * 6,
					1 * 6,
				]
			,1),
			\amp, 0.05263157894736842,
			\legato, 1,
		).play;
	// voice 17
		Pbind(
			\freq, Pseq(
				[
					[
						190.41804342135148,
					],
					[
						230.90734473442714,
					],
					[
						230.90734473442714,
					],
					[
						256.7666687277957,
					],
					[
						392.59272193104204,
					],
					[
						392.59272193104204,
					],
					[
						461.8146894688543,
					],
				],
			),
			\dur, Pseq(
				[
					1 * 6,
					1 * 6,
					1 * 6,
					1 * 6,
					1 * 6,
					1 * 6,
					1 * 6,
				]
			,1),
			\amp, 0.05263157894736842,
			\legato, 1,
		).play;
	// voice 18
		Pbind(
			\freq, Pseq(
				[
					[
						207.65234878997256,
					],
					[
						207.65234878997256,
					],
					[
						207.65234878997256,
					],
					[
						186.73939543839688,
					],
					[
						158.7487995049187,
					],
					[
						135.38143110016736,
					],
					[
						142.76098979310615,
					],
				],
			),
			\dur, Pseq(
				[
					1 * 6,
					1 * 6,
					1 * 6,
					1 * 6,
					1 * 6,
					1 * 6,
					1 * 6,
				]
			,1),
			\amp, 0.05263157894736842,
			\legato, 1,
		).play;
	// voice 19
		Pbind(
			\freq, Pseq(
				[
					[
						207.65234878997256,
					],
					[
						207.65234878997256,
					],
					[
						51.91308719749314,
					],
				],
			),
			\dur, Pseq(
				[
					1 * 6,
					1 * 6,
					5 * 6,
				]
			,1),
			\amp, 0.05263157894736842,
			\legato, 1,
		).play;)