s.boot;
s.quit;

(
	// voice 1
		Pbind(
			\freq, Pseq(
				[
					[
						Rest(),
					],
				],
			),
			\dur, Pseq(
				[
					8 * 3,
				]
			,1),
			\amp, 0.038461538461538464,
			\legato, 1,
		).play;
	// voice 2
		Pbind(
			\freq, Pseq(
				[
					[
						Rest(),
					],
				],
			),
			\dur, Pseq(
				[
					8 * 3,
				]
			,1),
			\amp, 0.038461538461538464,
			\legato, 1,
		).play;
	// voice 3
		Pbind(
			\freq, Pseq(
				[
					[
						Rest(),
					],
				],
			),
			\dur, Pseq(
				[
					8 * 3,
				]
			,1),
			\amp, 0.038461538461538464,
			\legato, 1,
		).play;
	// voice 4
		Pbind(
			\freq, Pseq(
				[
					[
						Rest(),
					],
				],
			),
			\dur, Pseq(
				[
					8 * 3,
				]
			,1),
			\amp, 0.038461538461538464,
			\legato, 1,
		).play;
	// voice 5
		Pbind(
			\freq, Pseq(
				[
					[
						220.0 * 13/4,
						220.0 * 18/7,
					],
				],
			),
			\dur, Pseq(
				[
					8 * 3,
					8 * 3,
				]
			,1),
			\amp, 0.038461538461538464,
			\legato, 1,
		).play;
	// voice 6
		Pbind(
			\freq, Pseq(
				[
					[
						220.0 * 13/4,
					],
				],
			),
			\dur, Pseq(
				[
					8 * 3,
				]
			,1),
			\amp, 0.038461538461538464,
			\legato, 1,
		).play;
	// voice 7
		Pbind(
			\freq, Pseq(
				[
					[
						220.0 * 18/7,
					],
				],
			),
			\dur, Pseq(
				[
					8 * 3,
				]
			,1),
			\amp, 0.038461538461538464,
			\legato, 1,
		).play;
	// voice 8
		Pbind(
			\freq, Pseq(
				[
					[
						698.4564628660078,
						587.3295358348151,
					],
				],
			),
			\dur, Pseq(
				[
					8 * 3,
					8 * 3,
				]
			,1),
			\amp, 0.038461538461538464,
			\legato, 1,
		).play;
	// voice 9
		Pbind(
			\freq, Pseq(
				[
					[
						698.4564628660078,
					],
				],
			),
			\dur, Pseq(
				[
					8 * 3,
				]
			,1),
			\amp, 0.038461538461538464,
			\legato, 1,
		).play;
	// voice 10
		Pbind(
			\freq, Pseq(
				[
					[
						587.3295358348151,
					],
				],
			),
			\dur, Pseq(
				[
					8 * 3,
				]
			,1),
			\amp, 0.038461538461538464,
			\legato, 1,
		).play;
	// voice 11
		Pbind(
			\freq, Pseq(
				[
					[
						220.0 * 64/21,
						220.0 * 22/9,
					],
				],
			),
			\dur, Pseq(
				[
					8 * 3,
					8 * 3,
				]
			,1),
			\amp, 0.038461538461538464,
			\legato, 1,
		).play;
	// voice 12
		Pbind(
			\freq, Pseq(
				[
					[
						220.0 * 64/21,
					],
				],
			),
			\dur, Pseq(
				[
					8 * 3,
				]
			,1),
			\amp, 0.038461538461538464,
			\legato, 1,
		).play;
	// voice 13
		Pbind(
			\freq, Pseq(
				[
					[
						220.0 * 22/9,
					],
				],
			),
			\dur, Pseq(
				[
					8 * 3,
				]
			,1),
			\amp, 0.038461538461538464,
			\legato, 1,
		).play;
	// voice 14
		Pbind(
			\freq, Pseq(
				[
					[
						116.54094037952248,
						61.7354126570155,
					],
				],
			),
			\dur, Pseq(
				[
					8 * 3,
				]
			,1),
			\amp, 0.038461538461538464,
			\legato, 1,
		).play;
	// voice 15
		Pbind(
			\freq, Pseq(
				[
					[
						Rest(),
					],
				],
			),
			\dur, Pseq(
				[
					8 * 3,
				]
			,1),
			\amp, 0.038461538461538464,
			\legato, 1,
		).play;
	// voice 16
		Pbind(
			\freq, Pseq(
				[
					[
						Rest(),
					],
				],
			),
			\dur, Pseq(
				[
					8 * 3,
				]
			,1),
			\amp, 0.038461538461538464,
			\legato, 1,
		).play;
	// voice 17
		Pbind(
			\freq, Pseq(
				[
					[
						Rest(),
					],
				],
			),
			\dur, Pseq(
				[
					8 * 3,
				]
			,1),
			\amp, 0.038461538461538464,
			\legato, 1,
		).play;
	// voice 18
		Pbind(
			\freq, Pseq(
				[
					[
						Rest(),
					],
				],
			),
			\dur, Pseq(
				[
					8 * 3,
				]
			,1),
			\amp, 0.038461538461538464,
			\legato, 1,
		).play;
	// voice 19
		Pbind(
			\freq, Pseq(
				[
					[
						Rest(),
					],
				],
			),
			\dur, Pseq(
				[
					8 * 3,
				]
			,1),
			\amp, 0.038461538461538464,
			\legato, 1,
		).play;
	// voice 20
		Pbind(
			\freq, Pseq(
				[
					[
						Rest(),
					],
				],
			),
			\dur, Pseq(
				[
					8 * 3,
				]
			,1),
			\amp, 0.038461538461538464,
			\legato, 1,
		).play;
	// voice 21
		Pbind(
			\freq, Pseq(
				[
					[
						Rest(),
					],
				],
			),
			\dur, Pseq(
				[
					8 * 3,
				]
			,1),
			\amp, 0.038461538461538464,
			\legato, 1,
		).play;
	// voice 22
		Pbind(
			\freq, Pseq(
				[
					[
						Rest(),
					],
				],
			),
			\dur, Pseq(
				[
					8 * 3,
				]
			,1),
			\amp, 0.038461538461538464,
			\legato, 1,
		).play;
	// voice 23
		Pbind(
			\freq, Pseq(
				[
					[
						Rest(),
					],
				],
			),
			\dur, Pseq(
				[
					8 * 3,
				]
			,1),
			\amp, 0.038461538461538464,
			\legato, 1,
		).play;
	// voice 24
		Pbind(
			\freq, Pseq(
				[
					[
						Rest(),
					],
				],
			),
			\dur, Pseq(
				[
					8 * 3,
				]
			,1),
			\amp, 0.038461538461538464,
			\legato, 1,
		).play;
	// voice 25
		Pbind(
			\freq, Pseq(
				[
					[
						Rest(),
					],
				],
			),
			\dur, Pseq(
				[
					8 * 3,
				]
			,1),
			\amp, 0.038461538461538464,
			\legato, 1,
		).play;
	// voice 26
		Pbind(
			\freq, Pseq(
				[
					[
						Rest(),
					],
				],
			),
			\dur, Pseq(
				[
					8 * 3,
				]
			,1),
			\amp, 0.038461538461538464,
			\legato, 1,
		).play;)